svg/Filled/arrow-back_filled.svg

<svg viewBox="0 0 24 24" xmlns="http://www.w3.org/2000/svg" width="24" height="24"><path d="M10.77 5.35a1.2 1.2 0 0 1 1.6 1.78L8.7 10.8h9.45a1.2 1.2 0 0 1 0 2.4H8.7l3.68 3.67.08.1a1.2 1.2 0 0 1-1.69 1.68l-.09-.08-4.59-4.59q-.28-.27-.52-.55a2 2 0 0 1-.44-.75 2.2 2.2 0 0 1 0-1.36l.04-.12a2 2 0 0 1 .4-.63q.24-.28.52-.55l4.59-4.59z"/></svg>

<svg viewBox="0 0 24 24" xmlns="http://www.w3.org/2000/svg" width="24" height="24"><path d="M10.77 5.35A1.2 1.2 0 0 1 12.37 7.13L8.7 10.8L18.15 10.8A1.2 1.2 0 0 1 18.15 13.2L8.7 13.2L12.46 16.97A1.2 1.2 0 0 1 10.77 18.65L6.09 13.98Q5.81 13.71 5.57 13.43A2 2 0 0 1 5.13 12.68A2.2 2.2 0 0 1 5.13 11.32L5.17 11.2A2 2 0 0 1 5.57 10.57Q5.81 10.29 6.09 10.02L10.68 5.43Z"/></svg>
